www/assets/icons/pin_end.svg

<svg xmlns="http://www.w3.org/2000/svg" width="24" height="24" viewBox="0 0 24 24" fill='currentColor'><path d="M20 12V6H4v12h10v2H4c-1.1 0-2-.9-2-2V6c0-1.1.9-2 2-2h16c1.1 0 2 .9 2 2v6zm-1 2c-1.66 0-3 1.34-3 3s1.34 3 3 3 3-1.34 3-3-1.34-3-3-3m-4.34-6H9v5.66l2.12-2.12 2.83 2.83 1.41-1.41-2.83-2.83z"/></svg>

<svg width="24" height="24" viewBox="0 0 24 24" xmlns="http://www.w3.org/2000/svg" fill='currentColor'><path d="M20 12V6H4V18H14V20H4C2.9 20 2 19.1 2 18V6C2 4.9 2.9 4 4 4H20C21.1 4 22 4.9 22 6V12H20ZM19 14C17.34 14 16 15.34 16 17C16 18.66 17.34 20 19 20C20.66 20 22 18.66 22 17C22 15.34 20.66 14 19 14ZM14.66 8H9V13.66L11.12 11.54L13.95 14.37L15.36 12.96L12.53 10.13L14.66 8Z"/></svg>
